X:1
T:Title
%%score { ( 1 3 4 ) | ( 2 5 ) }
L:1/8
M:6/8
K:D
V:1 treble nm="Grand Piano"
V:3 treble 
V:4 treble 
V:2 bass 
V:5 bass 
V:1
 z3 z[Q:1/4=100] D>E | F3 [EG][FA]>[Fd] | [B,Gd]2 [DGB]- [DGB][CEA]>[CE] | [CE]3 [CB][DA][EG] | %4
 F3- FD>E | F3 .[EG]2 z/ d/ | [B,Gd]2 [DB]- [DB][DA][B,DG] | [A,DF]3 [DA][CE][CF] | D3- D[CE][DF] | %9
 [EG]3 [FA][GB][Ec] | [Fd]2 [FA]- [FA][EA]B | c3 [Fd][DB][Ec] | [CA]3- [CA][DF][EG] | %13
 [FA]2 [Fd]- [Fd][Ge][Fd] | [B,Ac]2 [DGB]- [DGB][CDA][B,DG] | [A,DF]2 [DA]- [DA][CE][CF] | %16
[M:2/4] D4 |] %17
V:2
 z3 z [D,F,]>[D,G,D] | [D,A,D]3 [D,A,][D,D]>[D,=C] | G,,2 G,,- G,,A,,>[A,,A,] | %3
 [A,,A,]3 [A,,G,][A,,F,][A,,A,] | [D,A,D]3- [D,A,D][D,F,]>[D,G,D] | [D,A,D]3 [D,A,].[D,D]>F | %6
 G,,2 G,,- G,,G,,G,, | A,,3 [A,,F,][A,,G,][A,,A,] | [D,F,]3- [D,F,][A,,A,][A,,A,] | %9
 [A,,A,]3 [A,,A,][A,,A,][A,,A,] | [D,A,]2 [D,D]- [D,D][C,A,][E,^G,E] | [A,E]3 [D,A,][E,^G,][E,G,] | %12
 [A,,A,]3- [A,,A,][D,A,][D,A,] | [D,D]2 [D,A,]- [D,A,][C,A,][D,A,] | G,,2 G,,- G,,G,,G,, | %15
 A,,2 [A,,F,]- [A,,F,][A,,G,][A,,A,] |[M:2/4] [D,F,]4 |] %17
V:3
 x6 | x6 | x6 | x6 | x6 | z3 z [FA]2 | x6 | x6 | x6 | x6 | x6 | x6 | x6 | x6 | x6 | x6 | %16
[M:2/4] x4 |] %17
V:4
 x6 | x6 | x6 | x6 | x6 | z3 z2 =C | x6 | x6 | x6 | x6 | x6 | x6 | x6 | x6 | x6 | x6 |[M:2/4] x4 |] %17
V:5
 x6 | x6 | x6 | x6 | x6 | z3 z2 D, | x6 | x6 | x6 | x6 | x6 | x6 | x6 | x6 | x6 | x6 |[M:2/4] x4 |] %17

